dist/images/icons/icon-category-pizza.svg

<svg width="44" height="45" viewBox="0 0 44 45" fill="none" xmlns="http://www.w3.org/2000/svg">
<g clip-path="url(#clip0_669_763)">
<path d="M43.7453 43.7819C43.5106 44.0136 43.1635 44.0909 42.853 43.9797L7.15864 31.2527C5.91857 32.011 4.34566 32.1885 2.90303 31.5912C0.508382 30.5992 -0.632952 27.844 0.358937 25.4492C2.69807 19.8024 6.07532 14.7478 10.3972 10.4259C14.7191 6.10406 19.7736 2.72673 25.4204 0.387684C26.0068 0.144825 26.6147 0.0298409 27.2132 0.0298409C29.0587 0.0299269 30.8134 1.12348 31.5624 2.93186C32.0663 4.14856 32.0187 5.45807 31.5367 6.58248L43.9547 42.8922C44.0614 43.2043 43.9801 43.5501 43.7453 43.7819ZM12.5632 31.355L16.3462 32.7037C16.7903 32.2306 17.0068 31.5792 16.9201 30.9204C16.8436 30.3403 16.5459 29.8246 16.0818 29.4684C15.6176 29.1122 15.0429 28.9582 14.4624 29.0345C13.8824 29.1109 13.3668 29.4085 13.0105 29.8727C12.6824 30.3004 12.5262 30.8222 12.5632 31.355ZM29.9744 3.58971C29.3452 2.07051 27.597 1.34649 26.0782 1.97589C15.0748 6.53358 6.50483 15.1036 1.94697 26.107C1.64215 26.8429 1.64215 27.6534 1.94697 28.3893C2.25179 29.1252 2.82491 29.6983 3.56079 30.0032C4.29667 30.308 5.10723 30.308 5.84311 30.0032C6.579 29.6983 7.15211 29.1252 7.45693 28.3893C9.4078 23.6794 12.2248 19.4635 15.8297 15.8586C19.4346 12.2537 23.6505 9.43671 28.3605 7.48577C29.8797 6.85662 30.6037 5.10874 29.9744 3.58971ZM37.6093 29.65C37.5316 29.6519 37.4537 29.6564 37.376 29.6665C36.796 29.7429 36.2804 30.0406 35.9243 30.5048C35.5681 30.9689 35.414 31.5441 35.4903 32.1241C35.648 33.3215 36.7501 34.1673 37.948 34.0099C38.3175 33.9613 38.6645 33.8179 38.9604 33.5999L37.6093 29.65ZM39.5316 35.2709C39.1129 35.4988 38.6529 35.6507 38.1723 35.7139C36.035 35.9961 34.0676 34.4856 33.7862 32.3484C33.6499 31.3132 33.9249 30.2868 34.5606 29.4584C35.1729 28.6605 36.0495 28.1392 37.0383 27.9802L35.3302 22.9856L33.3658 24.4929C32.9893 24.7817 32.4497 24.7109 32.1609 24.3343C31.872 23.9577 31.9431 23.4183 32.3195 23.1294L34.7434 21.2695L30.301 8.27965C29.9283 8.60364 29.4993 8.87468 29.0186 9.0738C19.911 12.8464 12.8177 19.9396 9.04531 29.0471C8.91417 29.3639 8.75123 29.6579 8.56329 29.9288L10.8646 30.7493C10.945 30.056 11.2111 29.3946 11.6471 28.8265C12.2827 27.9981 13.203 27.4668 14.2382 27.3306C14.4116 27.3077 14.5845 27.2964 14.7565 27.2964C15.6114 27.2964 16.4385 27.5757 17.1281 28.1048C17.9567 28.7406 18.4878 29.6607 18.6242 30.6961C18.7465 31.6255 18.5296 32.546 18.0426 33.3086L28.7252 37.1176L29.1301 36.1401C29.2672 35.8092 29.5872 35.6094 29.9244 35.6094C30.034 35.6094 30.1453 35.6305 30.2529 35.675C30.6914 35.8566 30.8996 36.3594 30.718 36.7979L30.3463 37.6955L41.7518 41.7622L39.5316 35.2709Z" fill="black"/>
<path d="M9.28117 20.9748C9.27859 20.9789 9.27146 20.9898 9.26871 20.9938C9.00557 21.3885 8.47301 21.4944 8.07813 21.2315C7.68394 20.9691 7.57703 20.4364 7.83794 20.0415C8.00251 19.7887 8.27785 19.6507 8.55912 19.6507C8.71828 19.6507 8.87924 19.6949 9.02293 19.7873C9.42219 20.044 9.53778 20.5757 9.28117 20.9748Z" fill="black"/>
<path d="M7.97429 23.1098C7.13683 24.5781 6.38402 26.1148 5.73683 27.6771C5.55524 28.1157 5.05225 28.3237 4.61406 28.1421C4.17552 27.9605 3.96738 27.4578 4.14905 27.0193C4.82366 25.3907 5.60844 23.7889 6.48139 22.2583C6.63995 21.9804 6.93007 21.8245 7.22862 21.8245C7.37299 21.8245 7.51934 21.861 7.65358 21.9375C8.06582 22.1727 8.2095 22.6976 7.97429 23.1098Z" fill="black"/>
<path d="M26.8926 33.031C26.7223 33.0535 26.5493 33.0648 26.3784 33.0648C24.4262 33.0648 22.7616 31.6035 22.5065 29.6656C22.2252 27.5285 23.7348 25.5609 25.8719 25.2795C26.0422 25.257 26.2152 25.2456 26.3861 25.2456C28.3382 25.2456 30.0028 26.707 30.258 28.6451C30.5393 30.7821 29.0296 32.7496 26.8926 33.031ZM28.554 28.8694C28.411 27.7834 27.479 26.9645 26.3861 26.9645C26.29 26.9645 26.1925 26.9708 26.0963 26.9835C24.8988 27.1412 24.053 28.2437 24.2106 29.4413C24.3536 30.5272 25.2855 31.346 26.3784 31.346C26.4745 31.346 26.572 31.3396 26.6682 31.3269C27.8657 31.1691 28.7116 30.0667 28.554 28.8694Z" fill="black"/>
<path d="M26.669 22.3414C26.4986 22.364 26.3257 22.3753 26.1548 22.3753C24.2026 22.3753 22.538 20.9139 22.2829 18.976C22.1465 17.9407 22.4215 16.9144 23.0572 16.0859C23.6928 15.2574 24.613 14.7262 25.6483 14.5898C25.8186 14.5674 25.9915 14.5561 26.1622 14.5561C28.1145 14.5561 29.7792 16.0175 30.0343 17.9555C30.3157 20.0925 28.806 22.0599 26.669 22.3414ZM28.3304 18.1798C28.1874 17.0938 27.2553 16.2749 26.1624 16.2749C26.0664 16.2749 25.9689 16.2813 25.8728 16.2939C25.2927 16.3704 24.7771 16.6681 24.4209 17.1323C24.0647 17.5964 23.9106 18.1715 23.987 18.7517C24.13 19.8376 25.062 20.6565 26.1548 20.6565C26.2509 20.6565 26.3484 20.6501 26.4446 20.6374C27.642 20.4797 28.4879 19.3772 28.3304 18.1798Z" fill="black"/>
<path d="M21.001 25.9017L18.3596 26.2495C17.8893 26.3119 17.4574 25.9802 17.3954 25.5097C17.3334 25.0391 17.6647 24.6075 18.1352 24.5455L20.7765 24.1977C20.8146 24.1926 20.8524 24.1902 20.8898 24.1902C21.3144 24.1902 21.6838 24.505 21.7407 24.9375C21.8028 25.408 21.4716 25.8397 21.001 25.9017Z" fill="black"/>
<path d="M19.6616 19.5597L19.4283 21.3321C19.3664 21.8027 18.9348 22.1341 18.4642 22.0719C17.9936 22.01 17.6624 21.5784 17.7244 21.1078L17.9577 19.3354C18.0146 18.9029 18.3839 18.5881 18.8086 18.5881C18.8459 18.5881 18.8838 18.5905 18.9217 18.5956C19.3923 18.6576 19.7235 19.0891 19.6616 19.5597Z" fill="black"/>
</g>
<defs>
<clipPath id="clip0_669_763">
<rect width="44" height="44" fill="white" transform="matrix(1 0 0 -1 0 44.0298)"/>
</clipPath>
</defs>
</svg>

<svg width="44" height="45" fill="none" xmlns="http://www.w3.org/2000/svg"><g clip-path="url(#clip0_669_763)" fill="#000"><path d="M43.745 43.782a.859.859 0 01-.892.198L7.159 31.253a4.698 4.698 0 01-4.256.338A4.706 4.706 0 01.359 25.45a46.081 46.081 0 0110.038-15.023A46.08 46.08 0 0125.42.388 4.676 4.676 0 0127.213.03c1.846 0 3.6 1.093 4.35 2.902a4.687 4.687 0 01-.026 3.65l12.418 36.31a.86.86 0 01-.21.89zM12.563 31.355l3.783 1.349a2.186 2.186 0 00-.264-3.236 2.176 2.176 0 00-1.62-.433 2.177 2.177 0 00-1.451.838 2.17 2.17 0 00-.448 1.482zM29.974 3.59a2.985 2.985 0 00-3.896-1.614C15.075 6.534 6.505 15.104 1.947 26.107a2.962 2.962 0 000 2.282 2.963 2.963 0 001.614 1.614 2.963 2.963 0 002.282 0 2.963 2.963 0 001.614-1.614 38.432 38.432 0 018.373-12.53 38.433 38.433 0 0112.53-8.373 2.985 2.985 0 001.614-3.896zm7.635 26.06a2.176 2.176 0 00-1.685.855 2.176 2.176 0 00-.434 1.62 2.193 2.193 0 002.458 1.885 2.19 2.19 0 001.012-.41l-1.35-3.95zm1.923 5.62a3.909 3.909 0 11-2.494-7.29l-1.708-4.994-1.964 1.507a.86.86 0 01-1.047-1.364l2.424-1.86-4.442-12.99a4.682 4.682 0 01-1.282.795C19.91 12.846 12.818 19.94 9.045 29.047a4.66 4.66 0 01-.482.882l2.302.82c.08-.693.346-1.354.782-1.922a3.883 3.883 0 013.11-1.53 3.88 3.88 0 012.371.808 3.884 3.884 0 011.496 2.591 3.9 3.9 0 01-.581 2.613l10.682 3.809.405-.978a.86.86 0 111.588.658l-.372.898 11.406 4.066-2.22-6.491z"/><path d="M9.281 20.975zM7.974 23.11a40.668 40.668 0 00-2.237 4.567.86.86 0 11-1.588-.658 42.391 42.391 0 012.332-4.76.86.86 0 111.493.85zm18.919 9.921a3.918 3.918 0 01-4.386-3.365 3.914 3.914 0 013.88-4.42 3.918 3.918 0 013.871 3.4 3.914 3.914 0 01-3.365 4.385zm1.661-4.162a2.195 2.195 0 00-2.458-1.886 2.193 2.193 0 00-1.885 2.458 2.194 2.194 0 002.457 1.886 2.193 2.193 0 001.886-2.458zm-1.885-6.528a3.918 3.918 0 01-4.386-3.365 3.883 3.883 0 01.774-2.89 3.884 3.884 0 013.105-1.53 3.918 3.918 0 013.872 3.4 3.914 3.914 0 01-3.365 4.385zm1.661-4.161a2.195 2.195 0 00-2.457-1.886 2.177 2.177 0 00-1.452.838 2.176 2.176 0 00-.434 1.62 2.195 2.195 0 002.458 1.885 2.193 2.193 0 001.885-2.457zm-7.329 7.722l-2.641.348a.86.86 0 11-.225-1.704l2.641-.348a.86.86 0 01.225 1.704zm-1.339-6.342l-.234 1.772a.859.859 0 11-1.704-.224l.234-1.773a.86.86 0 011.704.225z"/></g><defs><clipPath id="clip0_669_763"><path fill="#fff" transform="matrix(1 0 0 -1 0 44.03)" d="M0 0h44v44H0z"/></clipPath></defs></svg>
